X:1
T:Beyer - No. 38PT
T:Beyer - No. 38
%%score { 1 | 2 }
L:1/8
Q:1/4=114
M:4/4
K:C
V:1 treble nm="Piano" snm="Pno."
V:2 treble 
V:1
"^Moderato" (!1!G8 | !5!d4 c4 | !3!B2 !5!d2 c2 B2 | !2!A8) | (!1!G8 | !5!d4 !4!c4 | %6
 !3!B2 !5!d2 !4!c2 !2!A2 | G8) |: (!2!A8 | !1!G2 !5!d2 c2 B2 | !2!A8 | !5!d2) (!1!G2 !3!B2 !2!A2 | %12
 (!1!G8) | !5!d4 c4 | !3!B2 !5!d2 c2 !2!A2 | G8) :| %16
V:2
 (!5!G,2 !1!D2 !3!B,2 !1!D2 | !3!B,2 !1!D2 !4!A,2 D2 | G,4) (A,2 B,2 | !2!C2 !4!A,2 !1!D2 !2!C2 | %4
 !3!B,2 D2) !4!A,2 (D2 | B,2 D2 !4!A,2 D2) | (!5!G,4 !1!D4) | (!3!B,2 D2) (!5!G,2 D2) |: %8
 (!2!C2 D2) (C2 D2) | (!3!B,8 | !2!C2) (!1!D2 C2 D2 | !3!B,4 !1!D2) !2!C2 | (!3!B,2 !1!D2 B,2 D2 | %13
 B,2 D2) (!4!A,2 D2 | G,4) (!1!D4 | !3!B,2 D2) G,4 :| %16

